src/lib/packages/icons/src/assets/filled/face-meh.svg

<svg xmlns="http://www.w3.org/2000/svg" width="24" height="24" fill="none"><path fill="currentColor" d="M12 2C6.48 2 2 6.48 2 12s4.48 10 10 10 10-4.48 10-10S17.52 2 12 2ZM9 8.25c.72 0 1.25.74 1.25 1.75S9.72 11.75 9 11.75 7.75 11.01 7.75 10 8.28 8.25 9 8.25Zm6 8.5H9c-.41 0-.75-.34-.75-.75s.34-.75.75-.75h6c.41 0 .75.34.75.75s-.34.75-.75.75Zm0-5c-.72 0-1.25-.74-1.25-1.75s.53-1.75 1.25-1.75 1.25.74 1.25 1.75-.53 1.75-1.25 1.75Z"/></svg>

<svg width="24" height="24" viewBox="0 0 24 24" fill="none" xmlns="http://www.w3.org/2000/svg">
<path d="M12 2C6.48 2 2 6.48 2 12C2 17.52 6.48 22 12 22C17.52 22 22 17.52 22 12C22 6.48 17.52 2 12 2ZM9 8.25C9.72 8.25 10.25 8.99 10.25 10C10.25 11.01 9.72 11.75 9 11.75C8.28 11.75 7.75 11.01 7.75 10C7.75 8.99 8.28 8.25 9 8.25ZM15 16.75H9C8.59 16.75 8.25 16.41 8.25 16C8.25 15.59 8.59 15.25 9 15.25H15C15.41 15.25 15.75 15.59 15.75 16C15.75 16.41 15.41 16.75 15 16.75ZM15 11.75C14.28 11.75 13.75 11.01 13.75 10C13.75 8.99 14.28 8.25 15 8.25C15.72 8.25 16.25 8.99 16.25 10C16.25 11.01 15.72 11.75 15 11.75Z" fill="currentColor"/>
</svg>
